statics/62ab0d6ce96d28d0e57dff04_twitter-icon-color.svg

<svg height="16" viewBox="0 0 16 16" width="16" xmlns="http://www.w3.org/2000/svg"><path d="m14.3709819 5.65767116c0 4.33983009-3.3013967 9.34232884-9.33917035 9.34232884-1.78939121-.0009443-3.53908399-.5137579-5.03181155-1.4747626.25984658.0283284.52102733.0435078.78248906.0454772 1.48498324.0000265 2.92471348-.4977949 4.07721492-1.4097951-1.41937868-.0340423-2.65636669-.9506673-3.06858453-2.27386303.2038774.03925168.411231.05883662.61905357.05847077.29328355.00101287.58524161-.03835715.86720868-.11694153-1.55010205-.32799855-2.6505851-1.67109581-2.6349802-3.21589206.45593564.21000544.96594713.35026644 1.4882635.37031485-1.44731321-.98909619-1.8869608-2.88678314-1.01596831-4.38530735 1.64206899 2.03972237 4.10810488 3.29005542 6.7655618 3.43028486-.05656297-.24521804-.08497713-.4957972-.08471961-.74712644-.02373244-1.78881382 1.445973-3.25768706 3.28271832-3.28085957.9120454.00041649 1.7816004.37548947 2.3948301 1.03298351.7380331-.14180719 1.4443302-.41017804 2.0859704-.7926037-.2401623.75477067-.7536291 1.39890146-1.444903 1.8125937.6518945-.07601228 1.2879288-.24911258 1.8858453-.51324338-.4383285.65512062-.9926041 1.22924729-1.6370231 1.69565218.0060037.14292853.008005.28585707.008005.42228885z" fill="#2aa3f0" fill-rule="evenodd"/></svg>

<?xml version="1.0" encoding="UTF-8"?>
<svg width="16px" height="16px" viewBox="0 0 16 16" version="1.1" xmlns="http://www.w3.org/2000/svg" xmlns:xlink="http://www.w3.org/1999/xlink">
    <!-- Generator: Sketch 49.3 (51167) - http://www.bohemiancoding.com/sketch -->
    <title>Social Icons/twitter-icon-color</title>
    <desc>Created with Sketch.</desc>
    <defs></defs>
    <g id="Social-Icons/twitter-icon" stroke="none" stroke-width="1" fill="none" fill-rule="evenodd">
        <path d="M14.3709819,5.65767116 C14.3709819,9.99750125 11.0695852,15 5.03181155,15 C3.24242034,14.9990557 1.49272756,14.4862421 0,13.5252374 C0.259846582,13.5535658 0.521027325,13.5687452 0.782489056,13.5707146 C2.2674723,13.5707411 3.70720254,13.0729197 4.85970398,12.1609195 C3.4403253,12.1268772 2.20333729,11.2102522 1.79111945,9.88705647 C1.99499685,9.92630815 2.20235045,9.94589309 2.41017302,9.94552724 C2.70345657,9.94654011 2.99541463,9.90717009 3.2773817,9.82858571 C1.72727965,9.50058716 0.626796602,8.1574899 0.642401501,6.61269365 C1.09833714,6.82269909 1.60834863,6.96296009 2.130665,6.9830085 C0.683351793,5.99391231 0.243704201,4.09622536 1.11469669,2.59770115 C2.75676568,4.63742352 5.22280157,5.88775657 7.88025849,6.02798601 C7.82369552,5.78276797 7.79528136,5.53218881 7.79553888,5.28085957 C7.77180644,3.49204575 9.24151188,2.02317251 11.0782572,2 C11.9903026,2.00041649 12.8598576,2.37548947 13.4730873,3.03298351 C14.2111204,2.89117632 14.9174175,2.62280547 15.5590577,2.24037981 C15.3188954,2.99515048 14.8054286,3.63928127 14.1141547,4.05297351 C14.7660492,3.97696123 15.4020835,3.80386093 16,3.53973013 C15.5616715,4.19485075 15.0073959,4.76897742 14.3629769,5.23538231 C14.3689806,5.37831084 14.3709819,5.52123938 14.3709819,5.65767116 Z" id="Icon" fill="#2AA3F0"></path>
    </g>
</svg>
